src/assets/svg/icons/fa/nuevos/classic/thin/object-group classic thin.svg

<svg xmlns="http://www.w3.org/2000/svg" viewBox="0 0 576 512"><!--! Font Awesome Pro 6.4.0 by @fontawesome - https://fontawesome.com License - https://fontawesome.com/license (Commercial License) Copyright 2023 Fonticons, Inc. --><path d="M112 80A32 32 0 1 0 48 80a32 32 0 1 0 64 0zM72 127.3C49.3 123.5 32 103.8 32 80c0-26.5 21.5-48 48-48c23.8 0 43.5 17.3 47.3 40H448.7c3.8-22.7 23.6-40 47.3-40c26.5 0 48 21.5 48 48c0 23.8-17.3 43.5-40 47.3V384.7c22.7 3.8 40 23.6 40 47.3c0 26.5-21.5 48-48 48c-23.8 0-43.5-17.3-47.3-40H127.3c-3.8 22.7-23.6 40-47.3 40c-26.5 0-48-21.5-48-48c0-23.8 17.3-43.5 40-47.3l0-257.3zM88 384.7c20.1 3.4 36 19.2 39.3 39.3H448.7c3.4-20.1 19.2-36 39.3-39.3V127.3c-20.1-3.4-36-19.2-39.3-39.3H127.3c-3.4 20.1-19.2 36-39.3 39.3l0 257.3zM80 400a32 32 0 1 0 0 64 32 32 0 1 0 0-64zm384 32a32 32 0 1 0 64 0 32 32 0 1 0 -64 0zM528 80a32 32 0 1 0 -64 0 32 32 0 1 0 64 0zM136 176c0-22.1 17.9-40 40-40h96c22.1 0 40 17.9 40 40v64c0 22.1-17.9 40-40 40H176c-22.1 0-40-17.9-40-40V176zm40-24c-13.3 0-24 10.7-24 24v64c0 13.3 10.7 24 24 24h96c13.3 0 24-10.7 24-24V176c0-13.3-10.7-24-24-24H176zm184 80h40c22.1 0 40 17.9 40 40v64c0 22.1-17.9 40-40 40H304c-22.1 0-40-17.9-40-40v-8c0-4.4 3.6-8 8-8s8 3.6 8 8v8c0 13.3 10.7 24 24 24h96c13.3 0 24-10.7 24-24V272c0-13.3-10.7-24-24-24H360c-4.4 0-8-3.6-8-8s3.6-8 8-8z"/></svg>

<svg xmlns="http://www.w3.org/2000/svg" viewBox="0 0 576 512"><path d="M136 176C136 153.9 153.9 136 176 136H272C294.1 136 312 153.9 312 176V240C312 262.1 294.1 280 272 280H176C153.9 280 136 262.1 136 240V176zM176 152C162.7 152 152 162.7 152 176V240C152 253.3 162.7 264 176 264H272C285.3 264 296 253.3 296 240V176C296 162.7 285.3 152 272 152H176zM400 232C422.1 232 440 249.9 440 272V336C440 358.1 422.1 376 400 376H304C281.9 376 264 358.1 264 336V328C264 323.6 267.6 320 272 320C276.4 320 280 323.6 280 328V336C280 349.3 290.7 360 304 360H400C413.3 360 424 349.3 424 336V272C424 258.7 413.3 248 400 248H360C355.6 248 352 244.4 352 240C352 235.6 355.6 232 360 232H400zM72 127.3C49.3 123.5 32 103.8 32 80C32 53.49 53.49 32 80 32C103.8 32 123.5 49.3 127.3 72H448.7C452.5 49.3 472.2 32 496 32C522.5 32 544 53.49 544 80C544 103.8 526.7 123.5 504 127.3V384.7C526.7 388.5 544 408.2 544 432C544 458.5 522.5 480 496 480C472.2 480 452.5 462.7 448.7 440H127.3C123.5 462.7 103.8 480 80 480C53.49 480 32 458.5 32 432C32 408.2 49.3 388.5 72 384.7V127.3zM80 48C62.33 48 48 62.33 48 80C48 97.67 62.33 112 80 112C97.67 112 112 97.67 112 80C112 62.33 97.67 48 80 48zM127.3 424H448.7C452 403.9 467.9 388 488 384.7V127.3C467.9 123.1 452 108.1 448.7 88H127.3C123.1 108.1 108.1 123.1 88 127.3V384.7C108.1 388 123.1 403.9 127.3 424zM80 400C62.33 400 48 414.3 48 432C48 449.7 62.33 464 80 464C97.67 464 112 449.7 112 432C112 414.3 97.67 400 80 400zM496 464C513.7 464 528 449.7 528 432C528 414.3 513.7 400 496 400C478.3 400 464 414.3 464 432C464 449.7 478.3 464 496 464zM496 48C478.3 48 464 62.33 464 80C464 97.67 478.3 112 496 112C513.7 112 528 97.67 528 80C528 62.33 513.7 48 496 48z"/></svg>
